Newaita-dark/.DP/24/cryptkeeper.svg

<svg xmlns="http://www.w3.org/2000/svg" xmlns:xlink="http://www.w3.org/1999/xlink" width="24px" height="24px" viewBox="0 0 24 24" version="1.1">
<g id="surface1">
<path style=" stroke:none;fill-rule:nonzero;fill:rgb(93.333334%,93.333334%,93.333334%);fill-opacity:1;" d="M 17.777344 3.28125 C 17.242188 3.164062 16.125 3.496094 15.902344 3.882812 L 15.703125 4.222656 C 15.648438 4.191406 15.582031 4.179688 15.515625 4.199219 L 15.039062 4.328125 C 14.90625 4.363281 14.828125 4.5 14.859375 4.632812 L 14.992188 5.109375 C 15.007812 5.179688 15.050781 5.230469 15.105469 5.261719 L 14.882812 5.644531 C 14.84375 5.632812 14.796875 5.632812 14.75 5.644531 L 13.792969 5.898438 C 13.660156 5.9375 13.582031 6.070312 13.617188 6.203125 L 13.875 7.164062 C 13.886719 7.210938 13.910156 7.246094 13.941406 7.277344 L 13.914062 7.320312 C 13.9375 7.347656 13.957031 7.375 13.96875 7.410156 L 14.164062 7.929688 C 14.21875 8.070312 14.140625 8.207031 13.992188 8.234375 L 13.445312 8.320312 C 13.40625 8.328125 13.375 8.328125 13.339844 8.320312 L 13.304688 8.375 C 13.25 8.34375 13.1875 8.335938 13.117188 8.351562 L 12.640625 8.480469 C 12.507812 8.515625 12.429688 8.648438 12.464844 8.78125 L 12.59375 9.265625 C 12.609375 9.328125 12.65625 9.382812 12.710938 9.414062 L 11.929688 10.757812 L 10.824219 10.691406 L 9.699219 12.640625 C 7.960938 12.113281 6.5 12.234375 6.015625 13.070312 L 5.023438 14.789062 C 4.335938 15.976562 5.890625 18.15625 8.507812 19.664062 C 11.125 21.179688 13.789062 21.4375 14.476562 20.246094 L 15.46875 18.527344 C 15.953125 17.6875 15.320312 16.363281 13.992188 15.125 L 15.121094 13.171875 L 14.507812 12.246094 L 18.480469 5.371094 C 18.703125 4.984375 18.429688 3.851562 18.0625 3.445312 C 18.195312 3.601562 18.21875 3.839844 18.105469 4.035156 L 12.917969 13.019531 C 12.773438 13.265625 12.46875 13.359375 12.226562 13.21875 C 11.992188 13.085938 11.914062 12.773438 12.058594 12.523438 L 17.246094 3.539062 C 17.359375 3.34375 17.574219 3.246094 17.777344 3.28125 Z M 10.203125 16.632812 L 10.28125 16.679688 C 11.453125 17.355469 12.28125 18.089844 12.144531 18.328125 L 11.648438 19.1875 C 11.511719 19.425781 10.460938 19.074219 9.289062 18.398438 L 9.210938 18.351562 C 8.046875 17.679688 7.214844 16.945312 7.351562 16.707031 L 7.847656 15.847656 C 7.984375 15.609375 9.039062 15.960938 10.203125 16.632812 Z M 10.203125 16.632812 "/>
</g>
</svg>

<svg xmlns="http://www.w3.org/2000/svg" width="32" height="32" viewBox="0 0 24 24"><path d="M17.777 3.281c-.535-.117-1.652.215-1.875.602l-.199.34a.24.24 0 0 0-.187-.024l-.477.13a.249.249 0 0 0-.176.304l.13.476a.24.24 0 0 0 .112.153l-.222.383a.255.255 0 0 0-.133 0l-.957.257a.245.245 0 0 0-.176.301l.258.961a.257.257 0 0 0 .066.113l-.023.043c.02.028.039.059.05.09l.196.52c.055.14-.023.277-.172.304l-.547.086a.24.24 0 0 1-.105 0l-.031.055a.24.24 0 0 0-.188-.023l-.48.128a.249.249 0 0 0-.176.305l.129.477a.24.24 0 0 0 .113.152l-.773 1.344-1.11-.067L9.7 12.645c-1.738-.532-3.199-.415-3.683.425l-.993 1.72c-.687 1.19.868 3.362 3.485 4.874 2.617 1.512 5.281 1.773 5.969.582l.992-1.719c.48-.84-.145-2.164-1.473-3.402l1.125-1.953-.61-.926 3.97-6.875c.222-.387-.047-1.52-.419-1.926.133.16.157.395.043.59l-5.187 8.985a.5.5 0 0 1-.688.199.503.503 0 0 1-.171-.696l5.187-8.984a.517.517 0 0 1 .531-.258zm-7.57 13.356l.078.043c1.168.675 1.996 1.41 1.86 1.648l-.497.86c-.136.238-1.187-.114-2.355-.79l-.078-.043c-1.172-.675-2-1.41-1.863-1.648l.496-.86c.136-.238 1.187.114 2.359.79zm0 0" fill="#bdbdbd"/></svg>
